svg/black/fct.svg

<svg xmlns="http://www.w3.org/2000/svg" width="32" height="32" viewBox="0 0 32 32">
  <path fill-rule="evenodd" d="M8.01155485,10.0053189 C8.01900027,9.99739836 8.02644929,9.98970534 8.03389831,9.98225781 L8.09745763,9.89752892 L8.16101695,9.81280003 C8.10597094,9.87884209 8.05664569,9.94202433 8.01155485,10.0053189 Z M7.94003602,10.0880932 C7.88731729,10.1657866 7.83794267,10.24348 7.77966102,10.3211734 C7.7747063,10.3261271 7.76975159,10.3312256 7.76480534,10.3364605 C7.820924,10.2488929 7.87997902,10.1628804 7.94003602,10.0880932 Z M8.01155485,10.0053189 C7.92709802,10.095165 7.84310403,10.214285 7.7648231,10.3364328 C7.76976907,10.3312076 7.77471504,10.3261184 7.77966102,10.3211734 C7.77441183,10.3264215 7.76916264,10.3319947 7.76391345,10.3378527 C7.72816552,10.3936752 7.69361458,10.4501086 7.6607615,10.5046492 Z M7.56779661,10.6600889 C7.52542373,10.7448178 7.44067797,10.9142756 7.3559322,10.9990045 C7.39830508,10.8719111 7.48305085,10.7448178 7.56779661,10.6600889 C7.48305085,10.7871823 7.39830508,10.8719111 7.3559322,10.9990045 C7.31355932,11.0837334 7.27118644,11.1684623 7.27118644,11.2531912 C7.39830508,11.0413689 7.56779661,10.8295467 7.69491525,10.6177245 C7.78900629,10.366865 7.88309733,10.1856362 8.01155485,10.0053189 Z M8.84148183,9.07328446 C8.95407814,8.95139503 9.08720856,8.84442838 9.22033898,8.71132446 C9.29337333,8.6200497 9.37864629,8.52615291 9.47465109,8.43076392 C9.41605163,8.48185884 9.35948085,8.53304499 9.30508475,8.58423113 C9.4052887,8.48404713 9.44625174,8.44309224 9.53304415,8.37382534 C10.1105919,7.82087143 11.0347294,7.22579195 12.0169492,6.80492445 C12.268309,6.70021204 12.507013,6.61390448 12.7296486,6.54600177 C12.9243927,6.4690355 13.1191368,6.40973738 13.3138809,6.3624658 C9.5930581,8.32592967 9.67498418,8.26449734 9.81355932,8.16058668 C9.6440678,8.28768002 9.6440678,8.28768002 9.30508475,8.58423113 C9.11676872,8.77250966 8.92845269,8.92731786 8.79964884,9.10815605 C8.77038736,9.13218719 8.74112588,9.15539162 8.71186441,9.17733336 C8.58474576,9.34679114 8.5,9.47388447 8.41525424,9.64334225 C8.41525424,9.68570669 8.37288136,9.77043558 8.37288136,9.81280003 C8.4248842,9.74780941 8.48087589,9.68680683 8.53963257,9.6285687 C8.49280136,9.67585766 8.45072802,9.72314662 8.41525424,9.77043558 C8.37288136,9.81280003 8.37288136,9.85516447 8.37288136,9.89752892 C8.33050847,10.0669867 8.37288136,10.1517156 8.41525424,10.2788089 C8.42087063,10.2720706 8.42645724,10.265362 8.43201565,10.2586825 C8.75438931,10.6568827 9.92482388,10.5639971 11.3813559,9.93989336 C11.8898305,9.77043558 12.3559322,9.51624892 12.779661,9.26206225 C12.8644068,9.17733336 12.8220339,9.05024002 12.779661,9.00787558 C12.7372881,8.96551113 12.5677966,8.75368891 12.440678,8.79605335 C12.1016949,9.00787558 11.720339,9.17733336 11.3389831,9.34679114 C10.1806229,9.84313236 9.26460793,9.93564535 8.98528717,9.6243301 C8.99296189,9.6165446 9.00068963,9.6087612 9.00847458,9.60097781 C8.92372881,9.51624892 8.92372881,9.38915558 8.96610169,9.26206225 C8.92685727,9.29345154 8.88761284,9.32484083 8.84890702,9.35623012 C8.88782791,9.3246688 8.9269648,9.29336553 8.96610169,9.26206225 C9.00847458,9.09260447 9.09322034,8.92314669 9.22033898,8.75368891 C9.09405327,8.84838434 8.96776755,8.96659851 8.84148183,9.07328446 Z M6.40727705,18.5869408 C6.40937467,18.5447023 6.41457367,18.5009134 6.42372881,18.4551468 C6.41457367,18.5009134 6.40937467,18.5447023 6.40727705,18.5869408 C6.40860796,18.5914693 6.40993888,18.5959885 6.41126979,18.6004984 C6.40932935,18.6503109 6.40994627,18.6987735 6.41307447,18.7458818 C6.40710236,18.6949209 6.4045298,18.6422606 6.40727705,18.5869408 C6.39863668,18.5575414 6.38999631,18.5277465 6.38135593,18.4975112 C6.29661017,18.3704179 6.25423729,18.2433245 6.21186441,18.1162312 C6.28587173,18.338209 6.35987905,18.6571118 6.43388638,18.903653 C6.73631655,20.4036072 9.89855844,20.3226025 14.0932203,18.4975112 C18.9237288,16.4640179 23.2881356,13.0324978 23.8813559,10.7871823 C24.0084746,10.2788089 23.9661017,9.89752892 23.7118644,9.60097781 C23.5,9.38915558 23.2881356,9.13496891 23.0762712,8.92314669 C23.3728814,9.2196978 23.4576271,9.60097781 23.3305085,10.1517156 C22.7372881,12.3546667 18.4576271,15.7438223 13.7542373,17.7349512 C10.0677966,19.3024357 7.18644068,19.5566223 6.42372881,18.4975112 C6.46610169,18.7940623 6.55084746,19.048249 6.63559322,19.3024357 C6.4918614,19.1228066 6.40907314,18.8822462 6.41306907,18.6065898 C6.48724379,18.857476 6.5614185,19.0799558 6.63559322,19.3024357 C6.55084746,19.2177068 6.50847458,19.1329779 6.46610169,19.0058845 C6.45536326,18.9736756 6.44462482,18.9394261 6.43388638,18.903653 Z M6.21166607,17.4076707 C6.92505174,18.4280658 9.697061,18.2246227 13.2881356,16.6758401 C17.8220339,14.7694401 21.9745763,11.5073778 22.5254237,9.38915558 C22.6525424,8.8384178 22.5254237,8.41477335 22.1864407,8.11822224 L21.7627119,7.82167112 L21.4237288,7.6098489 C21.5932203,7.73694224 21.9322034,7.94876446 21.8898305,8.54186669 C21.7627119,11.8462934 9.00847458,19.6413512 6.16949153,16.6334756 C6.16949153,16.760569 6.16949153,16.8982534 6.17478814,17.0359379 C6.18008475,16.8982534 6.16949153,16.760569 6.16949153,16.6334756 C6.08474576,16.4640179 6,16.2945601 6,16.0403734 C6,16.2260967 6.02262118,16.47967 6.03480689,16.7019432 C6.02811941,16.7869202 6.03136764,16.8713597 6.04254742,16.9532579 C6.04243035,16.9455717 6.04237288,16.9378279 6.04237288,16.9300267 C6.04237288,16.8640995 6.03952244,16.7896227 6.03530017,16.7110311 C6.02944838,16.8004196 6.03203912,16.8853784 6.04279482,16.9658806 C6.0474856,17.1610538 6.09200077,17.3185603 6.21186441,17.4384001 C6.21186441,17.4282231 6.21179648,17.4179781 6.21166607,17.4076707 Z M6.19067797,14.1763378 C6.21186441,14.0492445 6.23305085,13.9221512 6.25423729,13.7950578 C6.25423729,13.8374223 6.25423729,13.8374223 6.25423729,13.8797867 L6.16949153,14.2187023 L6.08474576,14.8118045 C6.08474576,14.77518 6.09266292,14.7385554 6.10165276,14.7019309 L6.08474576,14.8118045 C6.0468011,15.0773643 6.11079409,15.2749791 6.21586835,15.4654933 C6.21453371,15.473581 6.21319906,15.4816293 6.21186441,15.4896356 C6.08474576,15.3201778 6,15.0659912 6.04237288,14.7694401 C6,15.2778134 6.16949153,15.616729 6.59322034,15.8285512 C6.6779661,15.8709156 6.72033898,15.7014579 6.76271186,15.5743645 C6.76271186,15.5743645 6.84745763,15.1507201 6.72033898,14.9812623 C6.57517531,14.9086949 6.46109357,14.8361275 6.37809375,14.7369448 C6.37917407,14.7336482 6.38026147,14.7303584 6.38135593,14.7270756 C6.21186441,14.5576178 6.16949153,14.2610667 6.25423729,13.9221512 L6.19067797,14.1763378 Z M10.3447868,7.77516496 C10.3247996,7.78943566 10.3031613,7.80488856 10.279661,7.82167112 C10.2734688,7.82476661 10.2675028,7.827749 10.2617404,7.83063483 C10.1323323,7.91803391 10.007544,8.00688297 9.88820789,8.09666197 C9.90336397,8.08370514 9.91755692,8.0715948 9.93089574,8.06025171 C10.0055319,8.00812323 10.1003658,7.96018609 10.3220339,7.82167112 C10.4491525,7.69457779 10.4491525,7.69457779 10.7457627,7.52512001 C10.8728814,7.44039112 10.8728814,7.44039112 11.1694915,7.27093334 C11.3389831,7.18620445 11.3389831,7.18620445 11.6355932,7.01674667 C11.8050847,6.93201778 11.8050847,6.93201778 12.1440678,6.80492445 C12.2200972,6.76691732 12.2733901,6.74027618 12.3209448,6.71820306 C12.2627503,6.74262075 12.1929765,6.77070066 12.1016949,6.80492445 C11.9322034,6.8472889 11.9322034,6.8472889 11.5932203,7.01674667 C11.4237288,7.10147556 11.4237288,7.10147556 11.1271186,7.27093334 C11,7.35566223 11,7.35566223 10.7033898,7.52512001 C10.5863427,7.60313587 10.5770691,7.60931703 10.3447868,7.77516496 C10.9242513,7.39236318 11.5902127,7.0399385 12.2711864,6.76256001 C12.3811489,6.70148191 12.4911114,6.64744846 12.6010738,6.59944402 Z M12.4226153,6.67448709 C12.500448,6.64379027 12.5956697,6.61205601 12.779661,6.55073778 C12.8360141,6.52820104 12.877378,6.51165876 12.9157135,6.49712484 C13.0867839,6.44548417 13.1548884,6.42359413 13.2368288,6.3925285 C13.0969101,6.43476548 13.0258718,6.4571004 12.9598061,6.48083156 C13.9538631,6.22209477 14.5638832,6.37249018 14.4322034,6.93201778 C14.3898305,7.10147556 14.2627119,7.31329779 14.0508475,7.56748446 C14.1355932,7.65221335 14.6016949,7.73694224 14.8135593,7.65221335 C15.0677966,7.39802668 15.2372881,7.14384001 15.279661,6.88965334 C15.4491525,6.16945778 14.6440678,6 13.3728814,6.33891556 C13.3512276,6.34757533 13.331787,6.35535003 13.3138809,6.3624658 Z M6.81281241,13.1364128 L6.63559322,13.6679645 C7.18644068,14.472889 9.30508475,14.2610667 12.059322,13.1172267 C15.5338983,11.6344712 18.7118644,9.13496891 19.1355932,7.52512001 C19.3050847,6.93201778 19.0932203,6.55073778 18.5423729,6.33891556 C18.4576271,6.33891556 18.3305085,6.29655111 18.1610169,6.25418667 C17.9067797,6.16945778 17.9067797,6.16945778 17.8220339,6.21182222 C18.2881356,6.38128 18.4576271,6.72019556 18.3305085,7.27093334 C17.9491525,8.71132446 15.0254237,10.9990045 11.8474576,12.3970312 C9.37160184,13.4459137 7.43600506,13.6222439 6.90496489,12.9260218 C6.91402373,12.9052342 6.92311356,12.8842454 6.93220339,12.8630401 C6.80508475,12.6512178 6.76271186,12.3970312 6.84745763,12.10048 C6.72033898,12.3546667 6.63559322,12.5664889 6.55084746,12.8206756 C6.50847458,12.9054045 6.50847458,12.9477689 6.50847458,13.0324978 C6.46610169,13.2866845 6.50847458,13.4985067 6.63559322,13.6679645 C6.66439079,13.4952135 6.73233134,13.3224624 6.81281241,13.1364128 Z M7.3559322,11.8886578 C7.22881356,11.7192 7.22881356,11.5921067 7.22881356,11.3802845 C7.22881356,11.5921067 7.27118644,11.7615645 7.3559322,11.8886578 Z M13.3508232,25.346007 C13.3691088,25.3795108 13.3905858,25.4123955 13.4152542,25.4452801 C13.3914584,25.4135587 13.3706322,25.3803527 13.3527756,25.3459401 C14.4697757,25.3074893 16.004849,24.9306735 17.779661,24.1743468 C21.720339,22.479769 25.3220339,19.6413512 25.8305085,17.8196801 C25.8728814,17.7773156 25.8728814,17.7349512 25.8728814,17.6925868 C25.8728814,17.4807645 25.9152542,17.1842134 25.9576271,16.9300267 L26,16.8029334 C25.5672275,19.8677949 17.73694,24.5591719 13.2727099,25.0000702 C13.2742109,24.9539099 13.2793528,24.904864 13.2881356,24.8521779 C13.2782355,24.9016685 13.2729616,24.9511591 13.2723138,25.0001093 C12.4915819,25.0771758 11.8138203,25.0242237 11.2966102,24.8098135 C11.5084746,24.9369068 11.8474576,25.0640001 12.1016949,25.1910935 C12.4199504,25.3104155 12.8419544,25.3633518 13.3508232,25.346007 Z M13.8470786,23.6040445 C11.7350236,24.1952513 10.1566566,24.2081329 9.47457627,23.623609 C9.68644068,23.7930668 9.98305085,24.004889 10.1949153,24.1743468 C10.7870197,24.577974 11.9261567,24.6226825 13.4277399,24.3084723 C13.4233174,24.3203366 13.4191514,24.3321154 13.4152542,24.3438046 C13.4213048,24.3317058 13.4274514,24.3195111 13.433694,24.3072249 C14.2947533,24.1266173 15.2747627,23.8281379 16.3389831,23.4117868 C16.5932203,23.2846935 16.5932203,23.1152357 16.5508475,23.0728712 C16.5508475,23.0728712 16.3813559,22.7763201 15.9152542,22.9034135 C15.1839484,23.1899492 14.4918253,23.4234835 13.8490987,23.6034789 C13.873362,23.5678737 13.8982387,23.5321947 13.9237288,23.4965157 C13.8981038,23.5323836 13.8724787,23.5682515 13.8470786,23.6040445 Z M16,32 C7.163444,32 0,24.836556 0,16 C0,7.163444 7.163444,0 16,0 C24.836556,0 32,7.163444 32,16 C32,24.836556 24.836556,32 16,32 Z M8.54237288,22.6915912 C8.58474576,22.6915912 8.62711864,22.7339557 8.62711864,22.7763201 C8.45762712,22.5644979 8.20338983,22.2679468 8.03389831,22.0561246 C8.16101695,22.2679468 8.37288136,22.479769 8.54237288,22.6915912 Z M15.279661,6.04236444 L15.1101695,6.04236444 C16.0847458,5.95763556 16.6355932,6.25418667 16.4661017,6.93201778 C16.2542373,7.65221335 15.279661,8.62659558 13.9661017,9.51624892 C13.9661017,9.51624892 13.9237288,9.51624892 13.9237288,9.55861336 C13.8389831,9.72807114 14.1355932,10.1093511 14.4322034,9.98225781 C15.9152542,8.96551113 17.059322,7.82167112 17.2711864,7.01674667 C17.440678,6.33891556 17.0169492,6 16.1271186,6 C15.8728814,6 15.5338983,6.04236444 15.279661,6.04236444 Z M20.3644068,7.01674667 C20.1101695,6.88965334 19.7711864,6.76256001 19.5169492,6.63546667 C20.0677966,6.8472889 20.3220339,7.27093334 20.1525424,7.90640001 C19.6864407,9.68570669 16.1694915,12.48176 12.3135593,14.1339734 C11.5932203,14.4305245 10.9152542,14.6847112 10.279661,14.854169 C10.2372881,14.8965334 10.1949153,14.8965334 10.1525424,14.9812623 C9.98305085,15.235449 10.0254237,15.7438223 10.4067797,15.7014579 C11.0847458,15.4896356 11.8474576,15.235449 12.6101695,14.8965334 C16.6779661,13.1595912 20.4067797,10.2364445 20.9152542,8.33004446 C21.0847458,7.69457779 20.8728814,7.27093334 20.3644068,7.01674667 Z M24.7711864,11.2108267 L24.4322034,10.6177245 C24.559322,10.7871823 24.6016949,10.95664 24.6016949,11.2108267 C24.6440678,11.4226489 24.8983051,11.9310223 25.0254237,11.9733867 L25.0254237,11.9310223 C25.0254237,11.7615645 25.0254237,11.7615645 24.8983051,11.4226489 L24.7711864,11.2108267 Z M25.6610169,13.4561423 C25.6186441,13.2019556 25.4915254,12.8630401 25.3644068,12.5241245 C25.4491525,12.7783112 25.4491525,13.0748623 25.3644068,13.4137778 C24.8559322,15.3201778 21.5932203,18.1162312 17.6949153,20.1497246 C17.6101695,20.192089 17.5254237,20.2768179 17.4830508,20.4039112 C17.3983051,20.7004623 17.6525424,20.9970134 18.0762712,20.8275557 C21.9322034,18.8364268 25.1101695,16.0827379 25.6186441,14.2187023 C25.7033898,13.9221512 25.7033898,13.6679645 25.6610169,13.4561423 Z M25.9576271,15.235449 L25.8728814,14.6847112 C25.9152542,14.8965334 25.8728814,15.1083556 25.8305085,15.3201778 C25.5338983,16.5063823 24.0932203,18.0315023 22.1016949,19.5142579 C22.059322,19.5566223 21.9322034,19.6837157 21.8898305,19.8531734 C21.8474576,20.0649957 22.0169492,20.3615468 22.3135593,20.1497246 C24.220339,18.7093334 25.6186441,17.2265779 25.9152542,16.0827379 C25.9576271,15.8709156 25.9576271,15.7438223 25.9576271,15.5743645 L25.9576271,15.235449 Z M8.41525424,10.2788089 C8.37288136,10.1517156 8.33050847,10.0669867 8.37288136,9.89752892 C8.33050847,10.0669867 8.37288136,10.1517156 8.41525424,10.2788089 Z M10.7881356,11.4650134 C10.7881356,11.4650134 10.7881356,11.0837334 10.6186441,11.1260978 C9.1779661,11.5921067 8.11864407,11.5921067 7.77966102,11.1684623 C7.61016949,11.4226489 7.48305085,11.6344712 7.3559322,11.8886578 C7.69491525,12.2699378 8.41525424,12.3123023 8.92372881,12.2275734 C10.7457627,11.9733867 10.7881356,11.6768356 10.7881356,11.4650134 Z M6.63559322,13.6679645 C6.50847458,13.4985067 6.46610169,13.2866845 6.50847458,13.0324978 C6.46610169,13.2866845 6.50847458,13.4985067 6.63559322,13.6679645 Z M22.6101695,15.1507201 C22.5677966,15.0236267 22.440678,14.7694401 22.1016949,14.9388978 C20.2372881,16.5911112 17.4830508,18.3280534 14.6016949,19.5566223 C10.7881356,21.2088357 7.8220339,21.4206579 7.01694915,20.3615468 C7.10169492,20.4886401 7.1440678,20.6580979 7.22881356,20.7851912 C7.27118644,20.8275557 7.27118644,20.8699201 7.31355932,20.9122846 C7.3559322,20.9970134 7.39830508,21.0393779 7.44067797,21.1241068 C7.27118644,20.8699201 7.27118644,20.6580979 7.27118644,20.6157334 C7.22881356,20.6580979 7.18644068,20.573369 7.22881356,20.7004623 C7.52542373,22.2255823 10.7457627,22.098489 15.0254237,20.3191823 C17.9067797,19.0906134 20.6610169,17.3960356 22.5254237,15.7014579 C22.6101695,15.5743645 22.6949153,15.4049067 22.6101695,15.1507201 Z M11.8898305,22.9034135 C11.8474576,22.8186846 11.6355932,22.5644979 11.3389831,22.5644979 C9.68644068,22.8186846 8.54237288,22.6492268 8.07627119,22.0561246 C8.24576271,22.2679468 8.5,22.5644979 8.66949153,22.7763201 C9.1779661,23.3270579 10.279661,23.4541512 11.8050847,23.1999646 C11.9745763,23.1576001 11.9322034,22.9881424 11.8898305,22.9034135 Z M25.2372881,19.810809 C23.7542373,22.861049 16.8898305,26.2502046 14.1779661,25.8265602 C13.8813559,25.7841957 13.5,25.6994668 13.2457627,25.6147379 C14.220339,25.911289 16.0423729,25.5723735 18.2457627,24.6403557 C21.8050847,23.1152357 25.0677966,20.573369 25.5762712,18.9211557 C25.4915254,19.1753423 25.3644068,19.5566223 25.2372881,19.810809 Z M23.0338983,22.861049 C23.0762712,22.8186846 23.0762712,22.7763201 23.0762712,22.7763201 C23.0338983,22.7763201 23.0338983,22.7339557 23.0338983,22.7339557 C22.9915254,22.7339557 22.9915254,22.7763201 22.9491525,22.7763201 C21.8898305,23.6659735 20.4491525,24.5132624 18.9661017,25.148729 C17.4830508,25.7418313 16.2542373,26.0383824 15.4067797,25.9960179 C15.7457627,25.9960179 16.1694915,25.9960179 16.4661017,25.9960179 C17.1864407,25.9536535 18.1610169,25.6994668 19.2627119,25.2334579 C20.5762712,24.6827201 21.8474576,23.9201601 22.779661,23.1576001 C22.9491525,23.0305068 23.0338983,22.9034135 23.0338983,22.861049 Z M6.50847458,12.8630401 C6.59322034,12.6088534 6.6779661,12.3546667 6.80508475,12.1428445 C6.84745763,12.0157512 6.88983051,11.9310223 6.88983051,11.8039289 C6.80508475,12.0581156 6.63559322,12.4393956 6.55084746,12.6935823 C6.55084746,12.7359467 6.50847458,12.8206756 6.50847458,12.8630401 Z"/>
</svg>

<svg xmlns="http://www.w3.org/2000/svg" width="32" height="32"><path fill-rule="evenodd" d="M8.012 10.005l.022-.023.063-.084.064-.085c-.055.066-.104.129-.15.192zm-.072.083c-.053.078-.102.155-.16.233a.75.75 0 0 0-.015.015 2.91 2.91 0 0 1 .175-.248zm.072-.083c-.085.09-.169.21-.247.331a.773.773 0 0 1-.001.002 7.17 7.17 0 0 0-.103.167zm-.444.655c-.043.085-.127.254-.212.339a.922.922 0 0 1 .212-.339c-.085.127-.17.212-.212.339-.042.085-.085.17-.085.254.127-.212.297-.423.424-.635.094-.251.188-.432.317-.613zM8.84 9.073c.113-.122.246-.229.38-.362a3.35 3.35 0 0 1 .254-.28 6.036 6.036 0 0 0-.17.153c.1-.1.141-.14.228-.21.578-.553 1.502-1.148 2.484-1.57.251-.104.49-.19.713-.258.194-.077.39-.136.584-.184-3.72 1.964-3.639 1.902-3.5 1.799-.17.127-.17.127-.509.423-.188.189-.377.343-.505.524l-.088.07a2.85 2.85 0 0 0-.297.465c0 .043-.042.127-.042.17a2.16 2.16 0 0 1 .167-.184 1.39 1.39 0 0 0-.125.141c-.042.043-.042.085-.042.128-.042.169 0 .254.042.38l.017-.02c.322.399 1.493.306 2.95-.318.508-.17.974-.424 1.398-.678.084-.085.042-.212 0-.254-.043-.042-.212-.254-.34-.212-.338.212-.72.381-1.101.55-1.158.497-2.074.59-2.354.278l.023-.023c-.084-.085-.084-.212-.042-.339l-.117.094.117-.094c.042-.17.127-.339.254-.508-.126.094-.252.213-.379.32zm-2.434 9.514l.004.013c-.002.05-.001.099.002.146a.952.952 0 0 1-.006-.16l-.026-.088c-.084-.128-.127-.255-.17-.382.075.222.149.541.223.788.302 1.5 3.465 1.419 7.66-.406 4.83-2.034 9.194-5.466 9.787-7.71.127-.51.085-.89-.17-1.187-.211-.212-.423-.466-.635-.678.297.297.382.678.255 1.229-.594 2.203-4.873 5.592-9.577 7.583-3.686 1.567-6.568 1.822-7.33.763.042.296.127.55.212.804a1.076 1.076 0 0 1-.223-.695c.074.25.148.473.223.695a.683.683 0 0 1-.17-.296 3.573 3.573 0 0 1-.032-.102zm-.195-1.18c.713 1.021 3.485.818 7.076-.731 4.534-1.907 8.687-5.169 9.237-7.287.128-.55 0-.974-.339-1.27l-.423-.297-.34-.212c.17.127.51.339.467.932-.127 3.304-12.882 11.1-15.72 8.091 0 .128 0 .265.005.403.005-.138-.006-.275-.006-.403-.084-.169-.169-.338-.169-.593 0 .186.023.44.035.662-.007.085-.004.17.008.251v-.023c0-.066-.003-.14-.008-.219-.006.09-.003.174.008.255.004.195.049.353.169.472v-.03zm-.021-3.23c.02-.128.042-.255.063-.382v.085l-.085.339-.084.593c0-.037.008-.073.017-.11l-.017.11a.983.983 0 0 0 .13.653c0 .009-.002.017-.003.025a.97.97 0 0 1-.17-.72c-.042.508.127.847.551 1.059.085.042.127-.128.17-.255 0 0 .084-.423-.043-.593a1.027 1.027 0 0 1-.342-.244l.003-.01c-.17-.17-.212-.466-.127-.805l-.063.254zm4.154-6.402l-.065.047-.018.009c-.13.087-.254.176-.374.266l.043-.037c.075-.052.17-.1.391-.238.127-.127.127-.127.424-.297.127-.085.127-.085.423-.254.17-.085.17-.085.467-.254.17-.085.17-.085.508-.212a7.19 7.19 0 0 1 .177-.087 6.001 6.001 0 0 1-.22.087c-.169.042-.169.042-.508.212-.17.084-.17.084-.466.254-.127.085-.127.085-.424.254-.117.078-.126.084-.358.25.58-.383 1.245-.735 1.926-1.012.11-.062.22-.116.33-.164zm2.078-1.1c.077-.031.173-.063.357-.124.056-.023.097-.04.136-.054.17-.052.239-.073.32-.104a5.65 5.65 0 0 0-.276.088c.994-.259 1.604-.109 1.472.451-.042.17-.17.381-.381.635.085.085.55.17.763.085.254-.254.423-.508.466-.762.17-.72-.636-.89-1.907-.551l-.06.023zm-5.61 6.461l-.177.532c.55.805 2.67.593 5.423-.55 3.475-1.484 6.653-3.983 7.077-5.593.17-.593-.043-.974-.594-1.186-.084 0-.211-.042-.381-.085-.254-.085-.254-.085-.339-.042.466.17.636.508.509 1.059-.382 1.44-3.306 3.728-6.484 5.126-2.475 1.049-4.411 1.225-4.942.529l.027-.063a.93.93 0 0 1-.085-.763 5.167 5.167 0 0 0-.296.72c-.043.085-.043.128-.043.212-.042.255 0 .467.128.636a2.34 2.34 0 0 1 .177-.532zm.543-1.247c-.127-.17-.127-.297-.127-.509 0 .212.042.382.127.509zm5.995 13.457a.821.821 0 0 0 .002 0c1.117-.039 2.652-.415 4.427-1.172 3.94-1.694 7.542-4.533 8.05-6.354.043-.043.043-.085.043-.127 0-.212.042-.509.085-.763l.042-.127c-.433 3.065-8.263 7.756-12.727 8.197-.781.077-1.46.024-1.976-.19.211.127.55.254.805.381.318.12.74.172 1.249.155zm.496-1.742c-2.112.591-3.69.604-4.372.02.211.17.508.38.72.55.592.404 1.731.449 3.233.134a1.071 1.071 0 0 0-.013.036l.019-.037c.86-.18 1.84-.479 2.905-.895.254-.127.254-.297.212-.34 0 0-.17-.296-.636-.169-.731.287-1.423.52-2.066.7l.075-.106-.077.107zM16 32C7.163 32 0 24.837 0 16S7.163 0 16 0s16 7.163 16 16-7.163 16-16 16zm-7.458-9.308c.043 0 .085.042.085.084-.17-.212-.424-.508-.593-.72.127.212.339.424.508.636zm6.738-16.65h-.17c.975-.084 1.526.212 1.356.89-.212.72-1.186 1.695-2.5 2.584 0 0-.042 0-.042.043-.085.17.212.55.508.423 1.483-1.016 2.627-2.16 2.84-2.965C17.44 6.339 17.016 6 16.126 6c-.254 0-.593.042-.847.042zm5.084.975c-.254-.127-.593-.254-.847-.382.55.212.805.636.636 1.271-.467 1.78-3.984 4.576-7.84 6.228-.72.297-1.398.55-2.033.72-.043.043-.085.043-.127.127-.17.254-.128.763.254.72.678-.211 1.44-.466 2.203-.804 4.068-1.737 7.797-4.66 8.305-6.567.17-.635-.042-1.06-.55-1.313zm4.407 4.194l-.339-.593c.127.17.17.339.17.593.042.212.296.72.423.762v-.042c0-.17 0-.17-.127-.508l-.127-.212zm.89 2.245c-.042-.254-.17-.593-.297-.932.085.254.085.55 0 .89-.508 1.906-3.77 4.702-7.67 6.736a.434.434 0 0 0-.21.254c-.086.296.169.593.592.424 3.856-1.992 7.034-4.745 7.543-6.61.084-.296.084-.55.042-.762zm.297 1.78l-.085-.551c.042.212 0 .423-.042.635-.297 1.186-1.738 2.712-3.73 4.194a.772.772 0 0 0-.211.34c-.043.211.127.508.424.296 1.906-1.44 3.305-2.923 3.601-4.067.043-.212.043-.34.043-.509v-.339zM8.415 10.278c-.042-.127-.084-.212-.042-.381-.042.169 0 .254.042.38zm2.373 1.186s0-.381-.17-.339c-1.44.466-2.5.466-2.838.042-.17.255-.297.466-.424.72.339.382 1.06.424 1.568.34 1.822-.255 1.864-.551 1.864-.763zm-4.152 2.203c-.128-.17-.17-.381-.128-.636-.042.255 0 .467.128.636zm15.974 1.483c-.042-.127-.17-.382-.508-.212-1.865 1.652-4.619 3.39-7.5 4.618-3.814 1.652-6.78 1.864-7.585.805.085.127.127.296.212.423.042.043.042.085.085.127.042.085.084.127.127.212-.17-.254-.17-.466-.17-.508-.042.042-.085-.043-.042.084.296 1.526 3.517 1.398 7.796-.38 2.882-1.23 5.636-2.924 7.5-4.619.085-.127.17-.296.085-.55zm-10.72 7.752c-.043-.084-.254-.339-.551-.339-1.653.255-2.797.085-3.263-.508.17.212.424.508.593.72.509.551 1.61.678 3.136.424.17-.042.127-.212.085-.297zm13.347-3.092c-1.483 3.05-8.347 6.44-11.059 6.016a6.014 6.014 0 0 1-.932-.212c.974.296 2.796-.043 5-.975 3.56-1.525 6.822-4.067 7.33-5.719-.084.254-.212.636-.339.89zm-2.203 3.05c.042-.042.042-.085.042-.085-.042 0-.042-.042-.042-.042-.042 0-.042.042-.085.042-1.06.89-2.5 1.737-3.983 2.373-1.483.593-2.712.89-3.56.847h1.06c.72-.042 1.695-.297 2.797-.763 1.313-.55 2.584-1.313 3.517-2.075.17-.127.254-.255.254-.297zM6.508 12.863c.085-.254.17-.508.297-.72.042-.127.085-.212.085-.34-.085.255-.254.636-.34.89 0 .043-.042.128-.042.17z"/></svg>
